!!!!SEGMENT: pl-kk--kk-i-111--004-003_anonim--deo-gratias-de-passione-3tium.krn
!!!cenid: 18xx:2562
!!!COM: Anonim
!!!COM-rismid: pe30004985
!!!CDT:
!!!CNT:
!!!GTL: Deo gratias
!!!OTL: De Passione 3tium
!!!OMV: 003
!!!PDT: 1824
!!!AGN: Sacred
!!!SMS-siglum: PL-Kk
!!!SMS-shelfmark: Kk.I.111
!!!SMS-shelfwork: 004-003 G
!!!SMS-variant:
!!!SMS-altvar:
!!!NIFC-rismid: 1001157676
!!!URL-scan: http://repozytorium.nifc.pl/skany/pl-kk-nut--i-111
!!!ONB-nifc: UWAGA: A, T1, T2. Podział na poszególne Deo gratias. A: skan 0002 (m.in)
**kern	**text	**kern	**text	**kern	**text
*part3	*part3	*part2	*part2	*part1	*part1
*staff3	*staff3	*staff2	*staff2	*staff1	*staff1
*I"Tenore Vagante.	*	*I"Tenore Chorale.	*	*I"Alto.	*
*I'T 2	*	*I'T 1	*	*I'A	*
*clefC4	*	*clefC4	*	*clefC3	*
*k[b-]	*	*k[b-]	*	*k[b-]	*
*F:	*	*F:	*	*F:	*
*M2/1	*	*M2/1	*	*M2/1	*
*met(C|)	*	*met(C|)	*	*met(C|)	*
*all\right	*	*	*	*all\right	*
=1-	=1-	=1-	=1-	=1-	=1-
!LO:TX:t=P:problem:kreska pseudotaktowa	!	!LO:TX:t=P:problem:kreska pseudotaktowa	!	!LO:TX:t=P:problem:kreska pseudotaktowa	!
1c	De-	1F	De-	1a	De-
!LO:TX:t=P:problem:kreska pseudotaktowa	!	!LO:TX:t=P:problem:kreska pseudotaktowa	!	!LO:TX:t=P:problem:kreska pseudotaktowa	!
1B-	-o	1G	.	1g	.
=2-	=2-	=2-	=2-	=2-	=2-
*2\right	*	*	*	*	*
!	!	!LO:TX:t=P:problem:kreska pseudotaktowa	!	!	!
2A\	.	1A	-o	1.f	-o
!LO:TX:t=P:problem:kreska pseudotaktowa	!	!	!	!	!
2c\	.	.	.	.	.
!	!	!LO:TX:t=P:problem:kreska pseudotaktowa	!	!	!
2d\	gra-	1G	.	.	.
*	*	*	*	*2\right	*
!LO:TX:t=P:problem:przekreślona synkopowana wartość.	!	!	!	!LO:TX:t=P:problem:kreska pseudotaktowa	!
1c\	.	.	.	2e\	.
=3-	=3-	=3-	=3-	=3-	=3-
!	!	!LO:TX:t=P:problem:kreska pseudotaktowa	!	!LO:TX:t=P:problem:kreska pseudotaktowa	!
.	.	1A	.	1f	gra-
!LO:TX:t=P:problem:przekreślona synkopowana wartość.	!	!	!	!	!
1d	.	.	.	.	.
!	!	!LO:TX:t=P:problem:kreska pseudotaktowa	!	!LO:TX:t=P:problem:kreska pseudotaktowa	!
.	.	1B-	.	1g	.
!LO:TX:t=P:problem:przekreślona synkopowana wartość.	!	!	!	!	!
1c\	.	.	.	.	.
=4-	=4-	=4-	=4-	=4-	=4-
!	!	!LO:TX:t=P:problem:kreska pseudotaktowa	!	!	!
.	.	1A	.	1.f	.
!LO:TX:t=P:problem:kreska pseudotaktowa	!	!	!	!	!
2A\	.	.	.	.	.
!	!	!LO:TX:t=P:problem:kreska pseudotaktowa	!	!	!
2d\	.	1G	.	.	.
!	!	!	!	!LO:TX:t=P:problem:kreska pseudotaktowa	!
1c\	.	.	.	2e\	-ti-
=5-	=5-	=5-	=5-	=5-	=5-
!	!	!LO:TX:t=P:problem:kreska pseudotaktowa	!	!LO:TX:t=P:problem:kreska pseudotaktowa	!
.	.	1F	.	1f	-as
!LO:TX:t=P:problem:kreska pseudotaktowa	!	!	!	!	!
2e\	-ti-	.	.	.	.
!	!	!LO:TX:t=P:problem:kreska pseudotaktowa	!	!	!
2f\	-as	1A	gra-	2d\	De-
!LO:TX:t=P:problem:kreska pseudotaktowa	!	!	!	!	!
2e\	De-	.	.	1f\	.
=6-	=6-	=6-	=6-	=6-	=6-
!	!	!LO:TX:t=P:problem:kreska pseudotaktowa	!	!	!
2d\	-o	1G	.	.	.
!	!	!	!	!LO:TX:t=P:problem:kreska pseudotaktowa	!
1c	.	.	.	2e\	-o
!	!	!LO:TX:t=P:problem:kreska pseudotaktowa	!	!	!
.	.	1F	.	2f\	gra-
!	!	!	!	!LO:TX:t=P:problem:kreska pseudotaktowa	!
1B-X\	.	.	.	2d\	.
=7-	=7-	=7-	=7-	=7-	=7-
!	!	!LO:TX:t=P:problem:kreska pseudotaktowa	!	!	!
.	.	1E	.	2B-X/	.
!	!	!	!	!LO:TX:t=P:problem:kreska pseudotaktowa	!
1A	.	.	.	2c/	.
!	!	!LO:TX:t=P:problem:kreska pseudotaktowa	!	!	!
.	.	1F	.	2d/	.
!LO:TX:t=P:problem:kreska pseudotaktowa	!	!	!	!LO:TX:t=P:problem:kreska pseudotaktowa	!
2F/	.	.	.	2a\	.
=8-	=8-	=8-	=8-	=8-	=8-
!LO:TX:t=P:problem:kreska pseudotaktowa	!	!LO:TX:t=P:problem:kreska pseudotaktowa	!	!LO:TX:t=P:problem:kreska pseudotaktowa	!
1B-	.	1D	.	1g	.
!	!	!LO:TX:t=P:problem:kreska pseudotaktowa	!	!	!
2A\	gra-	1F	.	2f\	.
!LO:TX:t=P:problem:kreska pseudotaktowa	!	!	!	!LO:TX:t=P:problem:kreska pseudotaktowa	!
2d\	.	.	.	2f\	-ti-
=9-	=9-	=9-	=9-	=9-	=9-
!LO:TX:t=P:problem:kreska pseudotaktowa	!	!LO:TX:t=P:problem:kreska pseudotaktowa	!	!	!
1c	.	1E	.	2g\	-as
.	.	.	.	1f	De-
!	!	!LO:TX:t=P:problem:kreska pseudotaktowa	!	!	!
2B-\	.	1G	.	.	.
!LO:TX:t=P:problem:kreska pseudotaktowa	!	!	!	!LO:TX:t=P:problem:kreska pseudotaktowa	!
2G/	.	.	.	2e\	-o
=10-	=10-	=10-	=10-	=10-	=10-
!	!	!LO:TX:t=P:problem:kreska pseudotaktowa	!	!LO:TX:t=P:problem:kreska pseudotaktowa	!
2F/	.	1A	.	1f	gra-
!LO:TX:t=P:problem:kreska pseudotaktowa	!	!	!	!	!
2c\	.	.	.	.	.
!LO:TX:t=P:problem:kreska pseudotaktowa	!	!LO:TX:t=P:problem:kreska pseudotaktowa	!	!LO:TX:t=P:problem:kreska pseudotaktowa	!
1d	.	1G	.	1g	.
=11-	=11-	=11-	=11-	=11-	=11-
2.c\	.	2.E/	.	2.g\	.
!LO:TX:t=P:problem:kreska pseudotaktowa	!	!LO:TX:t=P:problem:kreska pseudotaktowa	!	!LO:TX:t=P:problem:kreska pseudotaktowa	!
4c\	-ti-	4E/	-ti-	4g\	-ti-
!LO:N:vis=0	!	!LO:N:vis=0	!	!LO:N:vis=0	!
1c;	-as.	1F;	-as.	1f;	-as
=-	=-	=-	=-	=-	=-
*-	*-	*-	*-	*-	*-
!!!system-decoration: [(s1,s2,s3)]
!!!ENC: Marta Chmielewska
!!!END: 2021-08-04
!!!ENC: Tomasz Grochalski
!!!END: 2021-07-09
